!!!id: 16xx:1317
!!!COM: Massaino, Tiburzio
!!!OTL: Missa Sagitta Ionathe – Benedictus
!!!PDT:
!!!SMS-siglum: PL-Kk
!!!SMS-shelfmark: Kk.I.40
!!!NIFC-rismID: 1001154532
!!!URL-scan: http://repozytorium.nifc.pl/skany/pl-kk-nut--i-40
!!!ONB-nifc: UWAGA: części Mszy: 1. Kyrie, 2. Et in terra, 3. Sanctus, 4. Benedictus, 5. Agnus Dei. Skan 0013-0014
!!!SMS-variant:
!!!SMS-altvar:
**kern	**text
*I"Baſso Ripieno.	*
*I'b rip	*
*clefF4	*
*ok[b-b-]	*
*k[b-]	*
*M2/1	*
*met(C|)	*
=1-	=1-
!LO:TX:t=P:problem:kreska pseudotaktowa	!
00r	.
=2-	=2-
.	.
=3-	=3-
*2\right	*
2.G\	Be-
4A\	.
2B-\	.
4BB-/	.
!LO:TX:t=P:problem:kreska pseudotaktowa	!
4C/	.
=4-	=4-
2D\	.
2E-X\	-ne-
1D	-di-
=5-	=5-
!LO:TX:t=P:problem:kreska pseudotaktowa	!
1GG	-ct(us),
2.D\	Be-
!LO:TX:t=P:problem:kreska pseudotaktowa	!
4Eny\	.
=6-	=6-
2F\	.
1G	.
2F\	-ne-
=7-	=7-
2.BB-/	-di-
!LO:TX:t=P:problem:kreska pseudotaktowa	!
4C/	.
0.D	-ct(us)
=8-	=8-
.	.
=9-	=9-
!LO:TX:t=P:problem:oddech jako rozdzielacz słów:global	!
2GG,</	.
2G\	qui
1G	Ve-
=10-	=10-
!LO:TX:t=P:problem:kreska pseudotaktowa	!
1F,<	-nit
2F\	in
2.E-X\	N(o-
=11-	=11-
.	.
4E-X\	-mi)-
1D	-ne
1C/	Do-
=12-	=12-
.	.
!LO:TX:t=P:problem:kreska pseudotaktowa	!
2BB-/	.
2.AA/	.
4AA/	.
=13-	=13-
2D/	.
4GG/	.
!LO:TX:t=P:problem:kreska pseudotaktowa	!
4AA/	.
4BB-/	.
4C/	.
4D/	.
!LO:TX:t=P:problem:kreska pseudotaktowa	!
4Eny/	.
=14-	=14-
!LO:LB:g=original	!
4F\	.
4G\	.
2.A\	.
8G\L	.
8F\J	.
1G\	.
=15-	=15-
.	.
!LO:TX:t=P:problem:kreska pseudotaktowa:między nutą a kropką	!
[<2F\	.
!LO:N:xstem:cue	!
4F]	.
4F\	.
2E-X\	.
=16-	=16-
1.D	-mi-
2D\	-ni,
=17-	=17-
!LO:TX:t=P:problem:kreska pseudotaktowa	!
1GG,<	.
1r	.
=18-	=18-
2r	.
2D\	Qui
1D	ve-
=19-	=19-
!LO:TX:t=P:problem:kreska pseudotaktowa	!
1C	-nit
2C/	in
2.BB-/	N(o-
=20-	=20-
.	.
4BB-/	-mi)-
!LO:TX:t=P:problem:kreska pseudotaktowa	!
2AA/	-ne
2GG/	Do-
1G\	.
=21-	=21-
.	.
!LO:TX:t=P:problem:2G poprawione na 2F#	!
2F#X\	-mi-
0G	-ni,
=22-	=22-
!LO:TX:t=P:problem:kreska pseudotaktowa	!
.	.
2r	.
1G\	in
=23-	=23-
.	.
!LO:TX:t=P:problem:kreska pseudotaktowa:między nutą a kropką	!
[<2Fny\	No-
!LO:N:xstem:cue	!
4F]	.
4F\	-mi-
2E-X\	-ne
=24-	=24-
1.D	Do-
2D\	-mi-
=25-	=25-
0GG;	-ni.
=26||-	=26||-
*M3/2	*
!LO:LB:g=original	!
00.r	.
=27-	=27-
.	.
=28-	=28-
.	.
=29-	=29-
.	.
=30-	=30-
0.r	.
=31-	=31-
.	.
=32-	=32-
!LO:TX:t=P:problem:kreska pseudotaktowa	!
1.r	.
=33-	=33-
2GG/	O-
2BB-/	-san-
!LO:TX:t=P:problem:kreska pseudotaktowa	!
2C/	-na
=34-	=34-
1D	in
!LO:TX:t=P:problem:kreska pseudotaktowa	!
2E-X\	ex-
=35-	=35-
1D	-cel-
!LO:TX:t=P:problem:kreska pseudotaktowa	!
2GG/	-ſis
=36-	=36-
2D\	O-
2D\	-san-
!LO:TX:t=P:problem:kreska pseudotaktowa	!
2G\	-na
=37-	=37-
2r	.
2G\	in
!LO:TX:t=P:problem:kreska pseudotaktowa	!
2F\	ex-
=38-	=38-
1BB-	-cel-
!LO:TX:t=P:problem:kreska pseudotaktowa	!
2C/	.
=39-	=39-
1GG	.
!LO:TX:t=P:problem:kreska pseudotaktowa	!
2C/	.
=40-	=40-
(1.G	-sis
=41-	=41-
!LO:TX:t=P:problem:kreska pseudotaktowa	!
1.GG)	.
=42-	=42-
1.r	.
=43-	=43-
2GG/	O-
2BB-/	-san-
!LO:TX:t=P:problem:kreska pseudotaktowa	!
2C/	-na
=44-	=44-
1D	in
!LO:TX:t=P:problem:kreska pseudotaktowa	!
2E-X\	ex-
=45-	=45-
2.D/	-cel-
4C/	.
2BB-/	.
=46-	=46-
4F\	.
4Eny\	.
4D\	.
4C\	.
!LO:TX:t=P:problem:kreska pseudotaktowa	!
2BB-/	-sis
=47-	=47-
!LO:TX:t=P:problem:kreska pseudotaktowa	!
1.r	.
=48-	=48-
*	*ij
2D\	O-
2F\	-san-
2G\	-na
=49-	=49-
1A	in
2B-\	ex-
=50-	=50-
1G	-cel-
!LO:TX:t=P:problem:kreska pseudotaktowa	!
2F\	-sis
*	*Xij
=51-	=51-
2BB-/	O-
2D/	-san-
2E-X\	-na
=52-	=52-
1D	in
1GG/	ex-
=53-	=53-
.	.
1D	-cel-
=54-	=54-
!LO:N:vis=0	!
1.GG;	-sis.
=-	=-
*-	*-
!!!RDF**kern: < = below
!!!RDF**kern: > = above
!!!ENC: Katarzyna Serwa
!!!END: 2021-07-05
!!!ENC: Marta Chmielewska
!!!END: 2021-08-02
